asset/image/icon/email-36x36.svg

<svg xmlns="http://www.w3.org/2000/svg" width="36" height="36" viewBox="0 0 36 36"><path fill="#2C9F96" d="M18 0C8.06 0 0 8.058 0 18c0 9.94 8.06 18 18 18 9.942 0 18-8.06 18-18 0-9.942-8.058-18-18-18m8.384 11.386l-8.612 6.833-8.613-6.834h17.224zm-18.36.91l6.07 4.816-6.07 6.07V12.296zm.806 12.06l6.368-6.368 2.515 1.996.046.055.01-.01.006.004.02-.025 2.673-2.12 6.468 6.467H8.83zm19.064-1.027l-6.317-6.32L27.894 12v11.33z"/></svg>

<?xml version="1.0" encoding="utf-8"?>
<!-- Generator: Adobe Illustrator 14.0.0, SVG Export Plug-In . SVG Version: 6.00 Build 43363)  -->
<!DOCTYPE svg PUBLIC "-//W3C//DTD SVG 1.1//EN" "http://www.w3.org/Graphics/SVG/1.1/DTD/svg11.dtd">
<svg version="1.1" id="Layer_1" xmlns="http://www.w3.org/2000/svg" xmlns:xlink="http://www.w3.org/1999/xlink" x="0px" y="0px"
	 width="36px" height="36px" viewBox="0 0 36 36" enable-background="new 0 0 36 36" xml:space="preserve">
<path fill="#2C9F96" d="M18,0C8.059,0,0,8.058,0,17.999C0,27.941,8.059,36,18,36c9.942,0,18-8.059,18-18.001C36,8.058,27.942,0,18,0
	 M26.384,11.386l-8.612,6.833l-8.613-6.833H26.384z M8.024,12.297l6.069,4.815l-6.069,6.069V12.297z M8.83,24.357l6.368-6.369
	l2.515,1.996l0.046,0.055l0.012-0.008l0.005,0.003l0.02-0.025l2.673-2.12l6.469,6.468H8.83z M27.894,23.329l-6.317-6.319L27.894,12
	V23.329z"/>
</svg>
